X:1
T:Winterreise, D.911
T:Erstarrung
T:Wilhelm Müller
T:Franz Schubert
T:Winterreise, D.911
T:4. Erstarrung
T:OpenScore (CC0)
T:OpenScore (CC0)
T:OpenScore (CC0)
T:OpenScore (CC0)
T:OpenScore (CC0)
T:OpenScore (CC0)
T:OpenScore (CC0)
T:OpenScore (CC0)
C:Franz Schubert
Z:Wilhelm Müller
Z:OpenScore (CC0)
%%score 1 { ( 2 5 ) | ( 3 4 ) }
L:1/8
Q:1/4=140
M:4/4
K:Eb
V:1 treble nm="Singstimme\nVoice"
V:2 treble nm="Pianoforte"
V:5 treble 
V:3 bass 
V:4 bass 
V:1
"^Ziemlich schnell." z8 | z8 | z8 | z8 | z8 | z8 | z2 z2 z2 G2 | G2 G2 G2 c2 | e2 d4 c2 | %9
w: ||||||Ich|such im Schnee ver-|ge- bens nach|
 =B2 B2 c2 d2 | (G2 c4) G2 | G2 AG G2 ce | g2 (f3 e) dc | =B2 B2 c2 d2 | (G2 c4) e2 | %15
w: ih- rer Trit- te|Spur, _ wo|sie an _ mei- nem _|Ar- me _ durch- *|strich die grü- ne|Flur, _ ich|
 d2 f2{f} e2 d2 | e4 c2 e2 | d2 f2{f} e2 d2 | e6 d2 | c2 c2{c} B2 B2 | (B3 A) G2 G2 | c2 BA G2 F2 | %22
w: such' im Schnee ver-|ge- bens nach|ih- rer Trit- te|Spur, wo|sie an mei- nem|Ar- * me durch-|strich die _ grü- ne|
 G4 z4 | z4 z2 ^F2 | G2 G2 d3 G |{G} ^F2 F2 z2 F2 | ^F2 =Ac e3 F | G2 G2 (=f4 | f2) a2 g2 f2 | %29
w: Flur.|Ich|will den Bo- den|küs- sen, durch-|drin- gen * Eis und|Schnee mit mei-|* nen hei- ssen|
 (e2 d2) c2 B2 | A6 A2 | A2 G2 z2 G2 | =B6 B2 | !>!d6 d2 | e3 d =B2 c2 | ^c2 d4 d2 | e3 d =B2 c2 | %37
w: Thrä- * nen, bis|ich die|Er- de, die|Er- de|seh', ich|will den Bo- den|küs- sen, durch-|drin- gend Eis und|
 d2 d2 (f4 | f2) a2 g2 f2 | (e2 d2) c2 B2 | A6 A2 | A2 G2 z2 G2 | =B6 B2 | c4 z4 | z8 | z8 | %46
w: Schnee mit mei-|* nen hei- ssen|Thrä- * nen, bis|ich die|Er- de, die|Er- de|seh|||
 z2 z2 z2 c2 | _d3 c B2 A2 |{A} G2 G2 z2 _d2 | e3 _d c2 B2 |{B} A4 z2 c2 | f3 e _d2 c2 | %52
w: Wo|find' ich ei- ne|Blü- the, wo|find' ich grü- nes|Gras? Die|Blu- men sind er-|
 (f3 e) _d2 c2 | e3 _d B2 G2 | c4 z2 c2 | _g3 e _d2 c2 | (_g3 e) _d2 c2 | e3 _d B2 c2 | A4 z2 A2 | %59
w: stor- * ben, der|Ra- sen sieht so|blass, die|Blu- men sind er-|stor- * ben, der|Ra- sen sieht so|blass. Wo|
 G2 G2 A2 A2 |{c} =B2 B2 z2 B2 | =B2 B2 c2 c2 | (e4 d4) | z4 z2 G2 | G2 G2 G3 c | e2 d4 c2 | %66
w: find ich ei- ne|Blü- the? wo|find ich grü- nes|Gras? _|Soll|denn kein An- ge-|den- ken ich|
 =B2 B2 c2 d2 | (G2 c4) G2 | G2 AG G2 ce | g2 (f3 e) dc | =B2 B2 c2 d2 | (G2 c4) e2 | %72
w: neh- men mit von|hier? _ Wenn|mei- ne * Schmer
- zen *|schwei- gen; _ wer *|sagt mir dann von|ihr? _ Soll|
 d2 f2{f} e2 d2 | e4 c2 e2 | d3 f{f} e2 d2 | e4 z2 d2 | c2 c2{c} B2 B2 | (B3 A) G2 G2 | %78
w: denn kein An- ge-|den- ken ich|neh- men mit von|hier? Wenn|mei- ne Schmer- zen|schwei- * gen, wer|
 c2 (BA) G2 F2 | G4 z4 | z4 z2 ^F2 | G2 G2 d3 G | G2 ^F2 z2 F2 | ^F2 =Ac e3 F | G2 d2 =f4- | %85
w: sagt mir * dann von|ihr?|Mein|Herz ist wie er-|fro- ren, kalt|starrt ihr * Bild da-|rin: schmilzt je|
 f2 a2 g2 f2 | (e2 d2) c2 B2 | A6 A2 |{A} G6 G2 | =B6 B2 | d6 d2 | e3 d =B2 c2 | ^c2 d2 z2 d2 | %93
w: _ das Herz mir|wie- * der, fliesst|auch ihr|Bild, ihr|Bild da-|hin; mein|Herz ist wie er-|fro- ren, kalt|
 e3 d =B2 c2 | d2 d2 f4- | f2 a2 g2 f2 | (e3 d) c2 B2 | A6 A2 |{A} G6 G2 | =B6 B2 | d8- | %101
w: starrt ihr Bild da-|rin: schmilzt je|_ das Herz mir|wie- * der, fliesst|auch ihr|Bild, ihr|Bild da-|hin,|
 d2"^un poco ritard." f2{f} e3 d | c6 z2 | z8 | z8 | z8 | z8 | z8 | !fermata!z8 |] %109
w: _ ihr Bild da-|hin!|||||||
V:2
!p! (3(EGG, (3EGG, (3EGG, (3EGG,) | (3(EGG, (3EGG, (3EGG, (3EGG,) | (3(EGG, (3EGG, (3EGG, (3EGG,) | %3
 (3(EGG, (3EGG, (3EGG, (3EGG,) |[K:bass]"_cresc." (3(CFF, (3CEF, (3CFF, (3CAA,) | %5
!>(! (3(CGG, (3CFF, (3A,EE, (3A,_D_D,)!>)! |!p! (3(G,CC, (3G,CC, (3G,=B,=B,, (3G,B,B,,) | %7
[K:treble]!pp! (3(EGG, (3EGG, (3EGG, (3EGG,) | (3(EAA, (3DAA, (3DAA, (3CFF,) | %9
 (3(=B,GG, (3DGG, (3CGG, (3[B,F]GG,) | (3([CE]GG, (3EGG, (3EGG, (3EGG,) | %11
 (3(EGG, (3EGG, (3EGG, (3EGG,) | (3(EAA, (3DAA, (3DAA, (3DFF,) | %13
 (3(=B,GG, (3DGG, (3CGG, (3[B,F]GG,) | (3([CE]GG, (3EGG, (3EGG, (3EGG,) | %15
 (3(DAA, (3DAA, (3EAA, (3FAA,) | (3(EGG, (3EGG, (3EGG, (3EGG,) | (3(DAA, (3DAA, (3EAA, (3FAA,) | %18
 (3(EGG, (3EGG, (3GeE (3GdD) | (3(GcC (3GcC (3FBD (3FBD) | (3(EAA, (3EAA, (3EGB, (3EGB,) | %21
 (3(EAA, (3EAA, (3EGB, (3DFB,) | (3(EGB, (3EGB,!<(! (3EGB, (3EGB,)!<)! | %23
!>(! (3(E!>)!AA, (3DAC (3B,GG, (3=A,^F^F,) | [G,B,G]2 z2 z4 | z2 [^F,^F]2!<(! [=G,=A]2!<)! [Cc]2 | %26
!>(! [Ee]4!>)! z4 | z2 (G2 [Dd]2 [Ee]2 | [Ff]2)!<(! ([Ff]2 [Gg]2 [Aa]2)!<)! | %29
!>(! ([Gg]2 [Ff]2 [Ee]2!>)! [_D_d]2) |"_dim." ([Cc]2 [A,A]2[K:bass] [F,F]2 [D,D]2) | %31
!p!!>(! ([D,D]2!>)! [E,E]2) z2 [E,E]2 |[K:treble]!>(! ([A,A]2 [G,G]2)!>)! z2 [G,G]2 | !>![=B,=B]8 | %34
 z4 z2 [Ff]2 | !>![Aa]3 [Ff] [Dd]2 [Cc]2 | [=B,=B]4 z2 [Ff]2 | !>![Aa]3 [Ff] [Dd]2 [Ee]2 | %38
 [Ff]2 ([Ff]2 [Gg]2!<(! [Aa]2)!<)! |!f!!>(! ([Gg]2 [Ff]2 [Ee]2 [_D_d]2)!>)! | %40
"_dim." ([Cc]2 [A,A]2[K:bass] [F,F]2 [D,D]2) |!p!!>(! ([D,D]2!>)! [E,E]2) z2 [E,E]2 | %42
[K:treble]!>(! ([A,A]2 [G,G]2) z2 [G,G]2!>)! | (3(EGG, (3EGG, (3EGG, (3EGG,) | %44
 (3(EGG, (3EGG, (3EGG, (3EGG,) | (3(_DAA, (3DAA, (3EAC (3EGD) | (3[CE]cC (3EcC (3EcC (3EcC | %47
 (3EcC (3EcC (3EcC (3EcC | (3E_d_D (3EdD (3EdD (3EdD | (3E_d_D (3EdD (3EdD (3EdD | %50
 (3AeE (3AeE (3AeE (3AeE |!>(! (3_G!>)!e"_cresc."E (3GeE (3GcE (3GcE | %52
!>(! (3_G!>)!eE (3GeE (3GcE (3GcE |!p! (3F_d_D (3_FBD (3E=GD (3EGD | %54
 (3GcC (3GcC (3Gc!<(!C (3GcC!<)! |!>(!"_cresc." (3_G!>)!eE (3GeE (3GcE (3GcE | %56
!>(! (3_G!>)!eE (3GeE (3GcE (3GcE |!>(! (3F_d_D!p! (3_FBD (3E=GD (3EGD!>)! | %58
 (3CAA, (3CAA, (3CAA, (3EAA, | (3FG=D (3FGD (3FAD (3FAD |!>(! (3FcD (3F=BD (3FBD (3FBD!>)! | %61
"_cresc." (3F=BD (3FBD (3FcD (3FcD |!f!!>(! (3AeF (3GeF (3GdF!p! (3GdF!>)! | %63
 (3GdF (3GAD (3^FGD (3=FGD |!p! (3EGG, (3EGG, (3EGG, (3EGG, | (3EAA, (3DAA, (3DAA, (3CFF, | %66
 (3=B,GG, (3DGG, (3CGG, (3[B,F]GG, | (3[CE]GG, (3EGG, (3EGG, (3EGG, | %68
!p! (3EGG, (3EGG, (3EGG, (3EGG, | (3EAA, (3DAA, (3DAA, (3CFF, | (3=B,GG, (3DGG, (3CGG, (3[B,F]GG, | %71
 (3[CE]GG, (3EGG, (3EGG, (3EGG, | (3DAA, (3DAA, (3EAA, (3FAA, | (3EGG, (3EGG, (3EGG, (3EGG, | %74
 (3DAA, (3DAA, (3EAA, (3FAA, | (3EGG, (3EGG, (3GeE (3GdD | (3GcC (3GcC (3FBD (3FBD | %77
 (3EAA, (3EAA, (3EGB, (3EGB, |!>(! (3E!>)!AC (3EAC (3EGB, (3DFB, | %79
 (3EGB, (3EGB, (3EGB, (3EG!<(!B,!<)! |!>(! (3E!>)!AA, (3DGC (3B,GG, (3=A,^F^F, | %81
 [G,B,G]2 z2 z2 z2 | z2 [^F,^F]2!<(! [=A,=A]2 [Cc]2!<)! |!>(! [Ee]4 z4!>)! | z2 (G2 [Dd]2 [Ee]2 | %85
 [Ff]2)!<(! ([Ff]2 [Gg]2 [Aa]2)!<)! |!f!!>(! ([Gg]2 [Ff]2 [Ee]2 [_D_d]2)!>)! | %87
"_dim." ([Cc]2 [A,A]2[K:bass] [F,F]2!p! [D,D]2) |!>(! ([D,D]2 [E,E]2)!>)! z2 [E,E]2 | %89
[K:treble]!>(! ([A,A]2 [G,G]2)!>)! z2 [G,G]2 |!>(! [=B,=B]8!>)! | z2 z2 z2 [Ff]2 | %92
 !>![Aa]3 [Ff] [Dd]2 [Cc]2 | [=B,=B]4 z2 [Ff]2 | [Aa]3 [Ff] [Dd]2 [Ee]2 | %95
 [Ff]2 ([Ff]2 [Gg]2!<(! [Aa]2)!<)! |!>(!!>(! ([Gg]2 [Ff]2 [Ee]2 [_D_d]2)!>)!!>)! | %97
"_dim." ([Cc]2 [A,A]2[K:bass] [F,F]2 [D,D]2) |!p!!>(! ([D,D]2!>)! [E,E]2) z2 [E,E]2 | %99
[K:treble]!>(! ([A,A]2 [G,G]2)!>)! z2 [G,G]2 | [=B,=B]4!<(!!<(! [Dd]3 [Ee]!<)!!<)! | %101
!f! [Ff]2"_un poco ritard."!>(! ([Aa]2 [Gg]2 [=B=b]2)!>)! | [cc']2 (3EGG, (3EGG, (3EGG, | %103
 (3EGG, (3EGG, (3EGG, (3EGG, | (3EGG, (3EGG, (3EGG, (3EGG, | (3EGG, (3EGG, (3EGG, (3EGG, | %106
!pp! (3EGG, (3EGG, (3EGG, (3EGG, | (3EG"_dim."G, (3EGG, (3EGG, (3EGG, | !fermata![G,EG]8 |] %109
V:3
 (C,2 =B,,2 C,2 (3!>!E,F,E, | D,2 C,2 =B,,2 C,2) | (A,,2 G,,2 ^F,,2 (3!>!G,,A,,G,,) | %3
 (=F,,2 E,,2 D,,2 E,,2) |!<(! (F,,2 =E,,2 F,,2 (3A,,B,,A,,!<)! | G,,2 F,,2 E,,2 _D,,2) | %6
 [G,,,G,,]8 | ([C,,C,]2 =B,,2 C,2 (3E,F,E,) | (F,,6 A,,2) | (G,,2 F,,2 E,,2 (3!>!G,,,A,,,G,,,) | %10
 (C,,4 E,,2 G,,2) | (C,2 =B,,2 C,2 (3!>!E,F,E,) | (F,,6 A,,2) | %13
 (G,,2 F,,2) E,,2 (3!>!G,,,A,,,G,,, | C,,6 (3(C,D,C, | =B,,6) (3(=B,,,C,,)B,,, | C,,6 (3(C,D,C, | %17
 =B,,6) (3(=B,,,C,,B,,, | C,,4) (C,2 D,2) | (E,2 E,,2) D,,2 (3(D,E,D, | C,2 C,,2 B,,,2) (B,,2 | %21
 A,,2 B,,C,) (B,,2 B,,,2) | (E,,2 G,,2) B,,2 E,2 | (C,2 D,>E,) D,2 D,,2 | %24
!mf! (3G,,B,,D, (3G,,B,,D, (3G,,B,,D, (3G,,B,,D, | (3=A,,C,D, (3A,,C,D, (3A,,C,D, (3A,,C,D, | %26
 (3=A,,C,^F, (3A,,C,F, (3A,,C,F, (3A,,C,F, | (3B,,D,G, (3B,,D,G, (3=B,,D,G, (3C,E,G, | %28
 (3D,F,G, (3=B,,D,F, (3B,,D,G, (3B,,D,A, |!f! (3C,,G,,C, (3D,,G,,=B,, (3E,,G,,C, (3=E,,G,,C, | %30
 (3F,,A,,C, (3F,,A,,C, (3F,,A,,C, (3F,,A,,C, | (3G,,C,G, (3G,,C,G, (3G,,C,G, (3G,,C,G, | %32
 (3G,,D,F, (3G,,D,F, (3G,,D,F, (3G,,D,F, | (3A,,D,F, (3A,,D,F, (3=B,,F,A, (3D,A,=B, | %34
 (3F,A,D (3F,A,D (3F,A,D (3F,A,D | (3F,A,D (3F,A,D (3F,A,D (3F,A,D | %36
 (3F,A,D (3F,A,D (3F,A,D (3F,A,D | (3F,A,D (3F,A,D (3D,F,A, (3C,E,A, | %38
 (3=B,,D,A, (3B,,D,F, (3B,,D,G, (3B,,D,A, | (3C,,G,,C, (3D,,G,,=B,, (3E,,G,,C, (3=E,,G,,C, | %40
 (3F,,A,,C, (3F,,A,,C, (3F,,A,,C, (3F,,A,,C, | (3G,,C,G, (3G,,C,G, (3G,,C,G, (3G,,C,G, | %42
 (3G,,D,F, (3G,,D,F, (3G,,D,F, (3G,,D,F, |!p! (C,2 =B,,2 C,2 (3!>!E,F,E, | D,2 C,2 =B,,2 C,2) | %45
 (F,,2 G,,A,,) .E,,2 .E,,2 |"^ligato"!pp! (3A,,E,A, (3A,,E,A, (3A,,E,A, (3A,,E,A, | %47
 (3A,,E,A, (3A,,E,A, (3A,,E,A, (3A,,E,A, | (3B,,E,G, (3B,,E,G, (3B,,E,G, (3B,,E,G, | %49
 (3B,,E,G, (3B,,E,G, (3B,,E,G, (3B,,E,G, | (3C,A,C (3C,A,C (3C,A,C (3C,A,C | %51
 (3C,_G,=A, (3C,G,A, (3E,G,A, (3E,G,A, | (3C,_G,=A, (3C,G,A, (3E,G,A, (3E,G,A, | %53
 (3B,,F,B, (3_D,_F,B, (3E,,E,G, (3E,,E,G, | (3=E,,C,=E, (3E,,C,E, (3E,,C,E, (3E,,C,E, | %55
 (3C,_G,=A, (3C,G,A, (3E,G,A, (3E,G,A, | (3C,_G,=A, (3C,G,A, (3E,G,A, (3E,G,A, | %57
 (3B,,F,B, (3_D,_F,B, (3E,,E,G, (3E,,E,G, | A,,2 z2 z2 (C2 | (=B,4) C4 | A,2 G,4) [G,,G,]2 | %61
 (([G,,G,]4 [A,,A,]4)) | ([C,,C,]4 [=B,,,=B,,]4-) | [B,,,B,,]8 | (C,2 =B,,2 C,2 (3!>!E,F,E, | %65
 F,,6 A,,2) | (G,,2 F,,2 E,,2 (3G,,,A,,,G,,,) | (C,,4 E,,2) G,,2 | (C,2 =B,,2 C,2 (3E,F,E, | %69
 F,,6 A,,2) | (G,,2 F,,2 E,,2 (3G,,,A,,,G,,,) | C,,6 (3(C,D,C, | =B,,6) (3(=B,,,C,,B,,, | %73
 E,,6) (3(C,D,C, | =B,,6) (3(=B,,,D,,B,,, | C,,4) (C,2 D,2) | (E,2 E,,2 D,,2 (3D,E,D,) | %77
 (C,2 C,,2) B,,,2 B,,2 | (A,,2 B,,C,) .B,,2 .B,,,2 | (E,,2 G,,2 B,,2 E,2) | (C,2 D,E,) .D,2 .D,,2 | %81
!mf! (3G,,B,,D, (3G,,B,,D, (3G,,B,,D, (3G,,B,,D, | (3=A,,C,D, (3A,,C,D, (3A,,C,D, (3A,,C,D, | %83
 (3=A,,C,^F, (3A,,C,F, (3A,,C,F, (3A,,C,F, | (3B,,D,G, (3B,,D,G, (3=B,,D,G, (3C,E,G, | %85
 (3D,F,G, (3=B,,D,F, (3B,,D,G, (3B,,D,A, | (3C,,G,,C, (3D,,G,,=B,, (3E,,G,,C, (3=E,,G,,C, | %87
 (3F,,A,,C, (3F,,A,,C, (3F,,A,,C, (3F,,A,,C, | (3G,,C,G, (3G,,C,G, (3G,,C,G, (3G,,C,G, | %89
 (3G,,D,F, (3G,,D,F, (3G,,D,F, (3G,,D,F, | (3A,,D,F, (3A,,D,F, (3=B,,F,A, (3D,A,=B, | %91
 (3F,A,D (3D,A,D (3F,A,D (3F,A,D | (3F,A,D (3F,A,D (3F,A,D (3F,A,D | %93
 (3F,A,D (3F,A,D (3F,A,D (3F,A,D | (3F,A,D (3F,A,D (3D,F,A, (3C,E,A, | %95
 (3=B,,D,A, (3B,,D,F, (3B,,D,G, (3B,,D,A, |!ff! (3C,,G,,C, (3D,,G,,=B,, (3E,,G,,C, (3=E,,G,,C, | %97
 (3F,,A,,C, (3F,,A,,C, (3F,,A,,C, (3F,,A,,C, | (3G,,C,G, (3G,,C,G, (3G,,C,G, (3G,,C,G, | %99
 (3G,,D,F, (3G,,D,F, (3G,,D,F, (3G,,D,F, | (3A,,D,F, (3A,,D,F, (3A,,D,F, (3A,,D,F, | %101
 (3G,,D,F, (3G,,F,A, (3G,,E,G, (3G,,D,F, |!p! (C,2 =B,,2 C,2 (3!>!E,F,E, | D,2 C,2 =B,,2 C,2) | %104
 (A,,2 G,,2 ^F,,2 (3!>!G,,A,,G,, | =F,,2 E,,2 D,,2 E,,2) | C,,8- | C,,8 | !fermata!C,,8 |] %109
V:4
 x8 | x8 | x8 | x8 | x8 | x8 | (E,,4 =D,,4) | x8 | x8 | x8 | x8 | x8 | x8 | x8 | x8 | x8 | x8 | %17
 x8 | x8 | x8 | x8 | x8 | x8 | x8 | x8 | x8 | x8 | x8 | x8 | x8 | x8 | x8 | x8 | x8 | x8 | x8 | %36
 x8 | x8 | x8 | x8 | x8 | x8 | x8 | x8 | x8 | x8 | x8 | x8 | x8 | x8 | x8 | x8 | x8 | x8 | x8 | %55
 x8 | x8 | x8 | x8 | x8 | x8 | x8 | x8 | x8 | x8 | x8 | x8 | x8 | x8 | x8 | x8 | x8 | x8 | x8 | %74
 x8 | x8 | x8 | x8 | x8 | x8 | x8 | x8 | x8 | x8 | x8 | x8 | x8 | x8 | x8 | x8 | x8 | x8 | x8 | %93
 x8 | x8 | x8 | x8 | x8 | x8 | x8 | x8 | x8 | x8 | x8 | x8 | x8 | x8 | x8 | x8 |] %109
V:5
 x8 | x8 | x8 | x8 |[K:bass] x8 | x8 | x8 |[K:treble] x8 | x8 | x8 | x8 | x8 | x8 | x8 | x8 | x8 | %16
 x8 | x8 | x8 | x8 | x8 | x8 | x8 | E2 D>C x4 | x8 | x8 | x8 | x8 | x8 | x8 | x4[K:bass] x4 | x8 | %32
[K:treble] x8 | x8 | x8 | x8 | x8 | x8 | x8 | x8 | x4[K:bass] x4 | x8 |[K:treble] x8 | x8 | x8 | %45
 x8 | x8 | x8 | x8 | x8 | x8 | x8 | x8 | x8 | x8 | x8 | x8 | x8 | x8 | x8 | x8 | x8 | x8 | x8 | %64
 x8 | x8 | x8 | x8 | x8 | x8 | x8 | x8 | x8 | x8 | x8 | x8 | x8 | x8 | x8 | x8 | E2 D>C x4 | x8 | %82
 x8 | x8 | x8 | x8 | x8 | x4[K:bass] x4 | x8 |[K:treble] x8 | x8 | x8 | x8 | x8 | x8 | x8 | x8 | %97
 x4[K:bass] x4 | x8 |[K:treble] x8 | x8 | x8 | x8 | x8 | x8 | x8 | x8 | x8 | x8 |] %109

